markets/GBP.svg

<svg width="42" height="42" viewBox="0 0 42 42" fill="none" xmlns="http://www.w3.org/2000/svg">
<circle cx="21" cy="21" r="21" fill="#06061B"/>
<path d="M13.5816 27.6517C14.4581 27.6517 15.1155 27.4508 15.5538 27.0491C15.992 26.6291 16.2112 25.9717 16.2112 25.0769V22.283H13.609V19.4617H16.2112V16.9965C16.2112 16.1382 16.3481 15.3621 16.622 14.6682C16.896 13.956 17.2794 13.3534 17.7725 12.8604C18.2655 12.3673 18.859 11.9839 19.5529 11.7099C20.2468 11.436 21.0229 11.2991 21.8812 11.2991C22.6481 11.2991 23.3603 11.4178 24.0177 11.6552C24.6933 11.8926 25.2777 12.2395 25.7707 12.696C26.2638 13.1526 26.6473 13.7004 26.9212 14.3395C27.2133 14.9786 27.3594 15.6908 27.3594 16.476H23.9355C23.9355 15.8552 23.762 15.3347 23.4151 14.9147C23.0681 14.4765 22.5568 14.2573 21.8812 14.2573C21.1325 14.2573 20.5755 14.4947 20.2103 14.9695C19.8451 15.4443 19.6625 16.0652 19.6625 16.8321V19.4617H23.5794V22.283H19.6625V25.1043C19.6625 25.3417 19.6442 25.5882 19.6077 25.8439C19.5712 26.0995 19.4981 26.346 19.3886 26.5834C19.2973 26.8208 19.1694 27.0308 19.0051 27.2134C18.8407 27.3778 18.6307 27.4873 18.3751 27.5421V27.5969H22.7851C23.6433 27.5969 24.246 27.396 24.5929 26.9943C24.9581 26.5926 25.1407 25.9717 25.1407 25.1317H28.4003C28.4003 26.9578 27.9255 28.3365 26.976 29.2678C26.0264 30.1991 24.6477 30.6647 22.8399 30.6647H13.5816V27.6517Z" fill="white"/>
</svg>

<svg xmlns="http://www.w3.org/2000/svg" width="42" height="42" fill="none"><circle cx="21" cy="21" r="21" fill="#06061B"/><path fill="#fff" d="M13.582 27.652c.876 0 1.534-.201 1.972-.603.438-.42.657-1.077.657-1.972v-2.794H13.61v-2.821h2.602v-2.465c0-.859.137-1.635.411-2.329a5.113 5.113 0 0 1 1.15-1.808 5.164 5.164 0 0 1 1.78-1.15c.695-.274 1.47-.41 2.33-.41.766 0 1.478.118 2.136.355.675.238 1.26.585 1.753 1.041a4.773 4.773 0 0 1 1.15 1.643c.292.64.438 1.352.438 2.137h-3.424c0-.62-.173-1.141-.52-1.561-.347-.438-.858-.658-1.534-.658-.748 0-1.305.238-1.67.713-.366.474-.548 1.095-.548 1.862v2.63h3.916v2.821h-3.916v2.821c0 .238-.019.484-.055.74-.037.255-.11.502-.22.74-.09.237-.219.447-.383.63a1.233 1.233 0 0 1-.63.328v.055h4.41c.858 0 1.461-.201 1.808-.603.365-.401.548-1.022.548-1.862h3.26c0 1.826-.476 3.204-1.425 4.136-.95.931-2.328 1.397-4.136 1.397h-9.258v-3.013Z"/></svg>
